src/lib/packages/icons/src/assets/filled/grid-dividers.svg

<svg width="24" height="24" viewBox="0 0 24 24" fill="none" xmlns="http://www.w3.org/2000/svg">
<path d="M21 3.75H3C2.586 3.75 2.25 3.414 2.25 3C2.25 2.586 2.586 2.25 3 2.25H21C21.414 2.25 21.75 2.586 21.75 3C21.75 3.414 21.414 3.75 21 3.75ZM21.75 14C21.75 13.586 21.414 13.25 21 13.25H3C2.586 13.25 2.25 13.586 2.25 14C2.25 14.414 2.586 14.75 3 14.75H21C21.414 14.75 21.75 14.414 21.75 14ZM5.5 6H4.5C3.5 6 3 6.5 3 7.5V8.5C3 9.5 3.5 10 4.5 10H5.5C6.5 10 7 9.5 7 8.5V7.5C7 6.5 6.5 6 5.5 6ZM12.5 6H11.5C10.5 6 10 6.5 10 7.5V8.5C10 9.5 10.5 10 11.5 10H12.5C13.5 10 14 9.5 14 8.5V7.5C14 6.5 13.5 6 12.5 6ZM19.5 6H18.5C17.5 6 17 6.5 17 7.5V8.5C17 9.5 17.5 10 18.5 10H19.5C20.5 10 21 9.5 21 8.5V7.5C21 6.5 20.5 6 19.5 6ZM5.5 17H4.5C3.5 17 3 17.5 3 18.5V19.5C3 20.5 3.5 21 4.5 21H5.5C6.5 21 7 20.5 7 19.5V18.5C7 17.5 6.5 17 5.5 17ZM12.5 17H11.5C10.5 17 10 17.5 10 18.5V19.5C10 20.5 10.5 21 11.5 21H12.5C13.5 21 14 20.5 14 19.5V18.5C14 17.5 13.5 17 12.5 17ZM19.5 17H18.5C17.5 17 17 17.5 17 18.5V19.5C17 20.5 17.5 21 18.5 21H19.5C20.5 21 21 20.5 21 19.5V18.5C21 17.5 20.5 17 19.5 17Z" fill="currentColor"/>
</svg>

<svg xmlns="http://www.w3.org/2000/svg" width="24" height="24" fill="none"><path fill="currentColor" d="M21 3.75H3a.75.75 0 0 1 0-1.5h18a.75.75 0 0 1 0 1.5ZM21.75 14a.75.75 0 0 0-.75-.75H3a.75.75 0 0 0 0 1.5h18a.75.75 0 0 0 .75-.75ZM5.5 6h-1C3.5 6 3 6.5 3 7.5v1c0 1 .5 1.5 1.5 1.5h1c1 0 1.5-.5 1.5-1.5v-1C7 6.5 6.5 6 5.5 6Zm7 0h-1c-1 0-1.5.5-1.5 1.5v1c0 1 .5 1.5 1.5 1.5h1c1 0 1.5-.5 1.5-1.5v-1c0-1-.5-1.5-1.5-1.5Zm7 0h-1c-1 0-1.5.5-1.5 1.5v1c0 1 .5 1.5 1.5 1.5h1c1 0 1.5-.5 1.5-1.5v-1c0-1-.5-1.5-1.5-1.5Zm-14 11h-1c-1 0-1.5.5-1.5 1.5v1c0 1 .5 1.5 1.5 1.5h1c1 0 1.5-.5 1.5-1.5v-1c0-1-.5-1.5-1.5-1.5Zm7 0h-1c-1 0-1.5.5-1.5 1.5v1c0 1 .5 1.5 1.5 1.5h1c1 0 1.5-.5 1.5-1.5v-1c0-1-.5-1.5-1.5-1.5Zm7 0h-1c-1 0-1.5.5-1.5 1.5v1c0 1 .5 1.5 1.5 1.5h1c1 0 1.5-.5 1.5-1.5v-1c0-1-.5-1.5-1.5-1.5Z"/></svg>
